svg/white/rdn.svg

<svg xmlns="http://www.w3.org/2000/svg" width="32" height="32" viewBox="0 0 32 32">
  <path fill="#FFF" d="M16,32 C7.163444,32 0,24.836556 0,16 C0,7.163444 7.163444,0 16,0 C24.836556,0 32,7.163444 32,16 C32,24.836556 24.836556,32 16,32 Z M10,6.00570995 C10.0829887,6.05200993 10.1727357,6.08400991 10.2584078,6.12360989 C11.8088549,6.80640955 13.2972841,7.65000913 14.6191396,8.7188086 C15.8326626,9.69970811 16.9008809,10.8810075 17.6661656,12.2504068 C18.3811602,13.5284062 18.834666,14.9706055 18.8780984,16.4422048 C18.8807819,16.6503047 18.8789929,16.8592045 18.8556368,17.0664044 C20.233812,17.0660711 21.6119871,17.0660711 22.9901623,17.0664044 C23.0516832,15.5056052 22.8233899,13.935606 22.3409623,12.4515067 C21.8860651,11.0466074 21.2081421,9.7181081 20.3690123,8.50660871 C19.7679159,7.64450914 19.0917818,6.83160954 18.3230185,6.1157099 C18.2594104,6.06570992 18.2088221,5.97660997 18.1114222,6.00570995 L10,6.00570995 Z M13.0015065,13.3326063 C13.0020366,17.5550709 13.0017053,21.7775354 13.0005126,26 C14.7209125,24.8968005 16.4359455,23.7854011 18.1565442,22.6827017 C17.8264779,22.075602 17.4897526,21.4720023 17.1569034,20.8664026 C15.7740239,18.3538038 14.3888916,15.8425384 13.0015065,13.3326063 Z"/>
</svg>

<svg xmlns="http://www.w3.org/2000/svg" width="32" height="32"><path fill="#FFF" d="M16 32C7.163 32 0 24.837 0 16S7.163 0 16 0s16 7.163 16 16-7.163 16-16 16zM10 6.006c.083.046.173.078.258.118 1.55.682 3.04 1.526 4.361 2.595 1.214.98 2.282 2.162 3.047 3.531.715 1.278 1.169 2.72 1.212 4.192.003.208.001.417-.022.624h4.134c.062-1.56-.167-3.13-.649-4.614a15.153 15.153 0 0 0-1.972-3.945 14.88 14.88 0 0 0-2.046-2.391c-.064-.05-.114-.14-.212-.11H10zm3.002 7.327L13 26c1.72-1.103 3.435-2.215 5.156-3.317-.33-.607-.667-1.211-1-1.817a4715.11 4715.11 0 0 0-4.155-7.533z"/></svg>
